X: 5610
T: Butlers Of Glen Avenue, The
R: jig
M: 6/8
K: Gmajor
|:DEG EDB|DEG B3|DEG B2 e|dBe dBA|
DEG EDB|DEG B3|dB/c/d gfe|dBA G3:|
|:gab age|deg B3|gab gab|dB/c/d e2 d|
gab age|deg B3|dB/c/d gfe|dBA G3:|

